X:1
T:Over Yonder
T:Henry de Fluiter, 1918
T:Over Yonder
T:Public Domain
T:Public Domain
C:Henry de Fluiter, 1918
Z:Public Domain
%%score ( 1 2 ) ( 3 4 )
L:1/8
M:6/8
K:Bb
V:1 treble 
V:2 treble 
V:3 bass 
V:4 bass 
V:1
 [DB][DA][DB] [DG]2 [DB] | [EB]3 [EA]3 | [A,C][B,D][CE] [EA]2 [EG] | (D3 [DF]3) | %4
w: 1.~Come let us sing of|home- land,|Down by the crys- tal|sea; *|
w: 2.~There is a won- drous|ci- ty,|Streets of trans- par- ent|gold; *|
w: 3.~Wa- ter of life there|flow- eth,|Fruit in a- bun- dant|store; *|
w: 4.~Come go with me to|home- land,|Je- sus in- vites you|there; *|
 [EG][E^F][EG] [EA]2 [EF] | [DB]3 [Fd]3 | [Fc][Fd][Fc] [=EG][EB][FA] | F3- [Fe]3 || %8
w: der- ful land where Je-|sus Build-|eth a man- sion for me.||
w: half its glor- ious beau-|ty Has|e’er to mor- tals been told.|O- *|
w: ti- zens of that count-|ry Hun-|ger and thirst ne- ver- more.||
w: spread the in- vi- ta-|tion, Tell|it to men ev- ’ry- where.||
"^Refrain" [Fd]3 [DF]3 | [EG]3 [DF]3 | [B,D][CE][DF] [Dc]2 [DB] | (E2 E [EA]3) | [Ee]3 [EA]3 | %13
w: |||||
w: yon- der,|down by|the crys- tal sea, O-|ver * *|der, There’s|
w: |||||
w: |||||
 [EA]3 [EG]3 | [^CG][DF][DF] [DF]2 [Ge] | (F2 F [Fd]3) | [Fd]3 [DF]3 | [EG]3 [DF]3 | %18
w: |||||
w: where I|long to be, No more|sor- * *|toil, grief|nor care|
w: |||||
w: |||||
 [^Fd]3 [Fc]2 [FA] | [GB]3- [GB][GA][GB] | [Gc]2 [GB] A2 [GB] | [Fd]3 [Ge]2"^poco rit." [Fd] | %22
w: ||||
w: In the home-|land * bright and|fair, O- ver, o-|there. * *|
w: ||||
w: ||||
 [=EG]3 [_EA]3 | D2 E [DB]3 |] %24
w: ||
w: ||
w: ||
w: ||
V:2
 x6 | x6 | x6 | D3 x3 | x6 | x6 | x6 | F3 x3 || x6 | x6 | x6 | A3- x3 | x6 | x6 | x6 | d3- x3 | %16
w: |||Won-|||||||||||||
w: |||Not||||ver||||yon-||||row,|
w: |||Ci-|||||||||||||
w: |||Help|||||||||||||
 x6 | x6 | x6 | x6 | x3 A2 x | x6 | x6 | B3- x3 |] %24
w: ||||||||
w: ||||ver||||
w: ||||||||
w: ||||||||
V:3
 [B,,F,][B,,F,][B,,F,] [B,,B,]2 [B,,F,] | [C,F,]3 [C,F,]3 | F,F,F, [F,C]2 [F,A,] | [B,,B,]6 | %4
w: ~ ~ ~ ~ ~|~ ~|~ ~ ~ ~ ~|~|
 [E,B,][E,A,][E,B,] [C,C]2 [F,A,] | [B,,F,]3 [B,,B,]3 | [C,A,][C,A,][C,A,] [C,B,][C,D][C,C] | %7
w: ~ ~ ~ ~ ~|~ ~|~ ~ ~ ~ ~ ~|
 [F,-A,]3 [F,C]3 || [B,,B,]3 [B,,B,]3 | [B,,B,]3 [B,,B,]3 | [B,,F,]3 [B,,F,]2 [B,,F,] | %11
w: ~ *|~ down|by the|crys- tal sea|
 [C,F,]2 [F,C] [F,C]3 | [F,A,]3 [F,C]3 | [F,C]3 [F,C]3 | [B,,B,]3 [B,,B,]2 [B,,B,] | %15
w: ~ ~ ~|~ There’s|where I|long to be|
 [B,,B,]2 [B,,B,] [B,,B,]3 | [B,,B,]3 [B,,B,]3 | [B,,B,]3 [B,,B,]3 | [D,A,]3 [D,A,]2 [D,D] | %19
w: ||||
 [G,D]3- [G,D][G,D][G,D] | [E,E]2 [E,E] [=E,_D]2 [E,D] | [F,B,]3 z2 z | [C,C]3 [F,C]3 | %23
w: ||||
 B,2 G, [B,,F,]3 |] %24
w: |
V:4
 x6 | x6 | F,F,F, x3 | x6 | x6 | x6 | x6 | x6 || x6 | x6 | x6 | x6 | x6 | x6 | x6 | x6 | x6 | x6 | %18
w: ||~ ~ ~||||||||||||||||
 x6 | x6 | x6 | x6 | x6 | B,,3- x3 |] %24
w: ||||||

